public/art/floors/slate-tile-2.svg

<svg xmlns="http://www.w3.org/2000/svg" width="32" height="32" shape-rendering="crispEdges" viewBox="0 -0.5 16 16"><path stroke="#5a6599" d="M0 0h3m9 0h3M0 1h1m13 0h1M0 2h1m13 0h1m-3 3h3M0 11h1m13 0h1M0 12h1m13 0h1M0 13h3m9 0h3"/><path stroke="#4c5580" d="M3 0h4m1 0h4M1 1h6m1 0h6M1 2h6m1 0h6M0 3h7m1 0h7M0 4h7m1 0h7M0 5h12M0 6h12M0 7h15M0 8h15M0 9h15M0 10h4m1 0h10M1 11h3m1 0h9M1 12h3m1 0h9M3 13h1m1 0h7"/><path stroke="#231e33" d="M7 0h1M7 1h1m7 0h1m-1 1h1m-1 1h1m-1 1h1m-1 5h1m-1 1h1m-1 1h1m-1 1h1M4 13h1m10 0h1M4 14h1m-4 1h4m4 0h5"/><path stroke="#2d334c" d="M15 0h1M7 2h1M7 3h1M7 4h1m7 1h1m-4 1h4m-1 1h1m-1 1h1m-1 6h1M0 15h1m4 0h4m5 0h2"/><path stroke="#3d4466" d="M4 10h1m-1 1h1m-1 1h1m-5 2h4m1 0h10"/></svg>

<svg xmlns="http://www.w3.org/2000/svg" width="32" height="32" viewBox="0 -0.5 16 16" shape-rendering="crispEdges">
<path stroke="#5a6599" d="M0 0h3M12 0h3M0 1h1M14 1h1M0 2h1M14 2h1M12 5h3M0 11h1M14 11h1M0 12h1M14 12h1M0 13h3M12 13h3" />
<path stroke="#4c5580" d="M3 0h4M8 0h4M1 1h6M8 1h6M1 2h6M8 2h6M0 3h7M8 3h7M0 4h7M8 4h7M0 5h12M0 6h12M0 7h15M0 8h15M0 9h15M0 10h4M5 10h10M1 11h3M5 11h9M1 12h3M5 12h9M3 13h1M5 13h7" />
<path stroke="#231e33" d="M7 0h1M7 1h1M15 1h1M15 2h1M15 3h1M15 4h1M15 9h1M15 10h1M15 11h1M15 12h1M4 13h1M15 13h1M4 14h1M1 15h4M9 15h5" />
<path stroke="#2d334c" d="M15 0h1M7 2h1M7 3h1M7 4h1M15 5h1M12 6h4M15 7h1M15 8h1M15 14h1M0 15h1M5 15h4M14 15h2" />
<path stroke="#3d4466" d="M4 10h1M4 11h1M4 12h1M0 14h4M5 14h10" />
</svg>
